src/asset/24px/candles.svg

<svg width="24" height="24" viewBox="0 0 24 24" fill="none" xmlns="http://www.w3.org/2000/svg">
<path fill-rule="evenodd" clip-rule="evenodd" d="M7 1.99973C7.55228 1.99973 8 2.44744 8 2.99973V4.99973C9.65685 4.99973 11 6.34287 11 7.99973V12.9997C11 14.6566 9.65685 15.9997 8 15.9997V20.9997C8 21.552 7.55228 21.9997 7 21.9997C6.44772 21.9997 6 21.552 6 20.9997V15.9997C4.34315 15.9997 3 14.6566 3 12.9997V7.99973C3 6.34287 4.34315 4.99973 6 4.99973V2.99973C6 2.44744 6.44772 1.99973 7 1.99973ZM6 6.99973C5.44772 6.99973 5 7.44744 5 7.99973V12.9997C5 13.552 5.44772 13.9997 6 13.9997H8C8.55228 13.9997 9 13.552 9 12.9997V7.99973C9 7.44744 8.55228 6.99973 8 6.99973H6Z" fill="#808080"/>
<path fill-rule="evenodd" clip-rule="evenodd" d="M17 21.9997C17.5523 21.9997 18 21.552 18 20.9997V18.9997C19.6569 18.9997 21 17.6566 21 15.9997V10.9997C21 9.34287 19.6569 7.99973 18 7.99973V2.99973C18 2.44744 17.5523 1.99973 17 1.99973C16.4477 1.99973 16 2.44744 16 2.99973V7.99973C14.3431 7.99973 13 9.34287 13 10.9997V15.9997C13 17.6566 14.3431 18.9997 16 18.9997V20.9997C16 21.552 16.4477 21.9997 17 21.9997ZM16 16.9997C15.4477 16.9997 15 16.552 15 15.9997V10.9997C15 10.4474 15.4477 9.99973 16 9.99973H18C18.5523 9.99973 19 10.4474 19 10.9997V15.9997C19 16.552 18.5523 16.9997 18 16.9997H16Z" fill="#808080"/>
</svg>

<svg width="24" height="24" fill="none" xmlns="http://www.w3.org/2000/svg"><path fill-rule="evenodd" clip-rule="evenodd" d="M7 2a1 1 0 011 1v2a3 3 0 013 3v5a3 3 0 01-3 3v5a1 1 0 11-2 0v-5a3 3 0 01-3-3V8a3 3 0 013-3V3a1 1 0 011-1zM6 7a1 1 0 00-1 1v5a1 1 0 001 1h2a1 1 0 001-1V8a1 1 0 00-1-1H6zM17 22a1 1 0 001-1v-2a3 3 0 003-3v-5a3 3 0 00-3-3V3a1 1 0 10-2 0v5a3 3 0 00-3 3v5a3 3 0 003 3v2a1 1 0 001 1zm-1-5a1 1 0 01-1-1v-5a1 1 0 011-1h2a1 1 0 011 1v5a1 1 0 01-1 1h-2z" fill="gray"/></svg>
